assets/icons/star.svg

<svg fill="none" height="20" viewBox="0 0 20 20" width="20" xmlns="http://www.w3.org/2000/svg"><path clip-rule="evenodd" d="m10 .3125c.175-.000112.3466.048768.4953.141109.1486.092341.2685.224456.346.381391l2.3525 4.76875 5.2625.765c.1731.02514.3357.09819.4693.2109.1338.1127.2334.26057.2874.42689.0541.16632.0606.34446.0188.51427s-.1303.32454-.2555.44669l-3.8075 3.7125.8987 5.24c.0296.1724.0105.3496-.0554.5117-.0658.1622-.1757.3025-.3172.4054s-.309.1641-.4835.1768c-.1745.0126-.349-.0238-.5039-.1052l-4.7075-2.475-4.70748 2.475c-.15476.0813-.32916.1177-.50351.105-.17434-.0126-.34169-.0737-.48314-.1763-.14144-.1028-.25136-.243-.31732-.4049-.06598-.1619-.08539-.3389-.05603-.5113l.9-5.2425-3.81-3.7112c-.12554-.1221-.214374-.27691-.256432-.44691-.04206-.17-.035663-.34838.018465-.51493s.153823-.31461.287787-.4274c.13397-.11279.29684-.1858.47018-.21076l5.2625-.76375 2.35375-4.76875c.07748-.156935.19734-.28905.34601-.381391.14868-.092341.32023-.141221.49522-.141109zm0 3.05625-1.73123 3.50625c-.06723.13612-.16651.25389-.28931.34316-.12281.08928-.26546.14739-.41569.16934l-3.87125.5625 2.8 2.73c.10894.1061.19045.2371.23749.3817.04703.1446.0582.2984.03251.4483l-.66 3.855 3.46125-1.82c.13454-.0708.28426-.1076.43623-.1076.152 0 .3017.0368.4363.1076l3.4625 1.82-.6625-3.855c-.0257-.1499-.0145-.3037.0325-.4483.0471-.1446.1286-.2756.2375-.3817l2.8-2.72875-3.87-.5625c-.1503-.02195-.2929-.08006-.4157-.16934-.1228-.08927-.2221-.20704-.2893-.34316l-1.7313-3.50875z" fill="#f0b90a" fill-rule="evenodd"/></svg>

<svg width="20" height="19" viewBox="0 0 20 19" fill="none" xmlns="http://www.w3.org/2000/svg">
<path fill-rule="evenodd" clip-rule="evenodd" d="M10.0001 0.3125C10.1752 0.312388 10.3467 0.361268 10.4954 0.453609C10.6441 0.54595 10.7639 0.678065 10.8414 0.835L13.1939 5.60375L18.4564 6.36875C18.6295 6.39389 18.792 6.46694 18.9258 6.57965C19.0595 6.69235 19.159 6.84022 19.2132 7.00654C19.2673 7.17286 19.2738 7.351 19.2319 7.52081C19.19 7.69062 19.1015 7.84535 18.9764 7.9675L15.1689 11.68L16.0677 16.92C16.0973 17.0924 16.0781 17.2696 16.0123 17.4317C15.9464 17.5939 15.8365 17.7342 15.695 17.8371C15.5535 17.94 15.386 18.0012 15.2115 18.0139C15.037 18.0265 14.8625 17.9901 14.7077 17.9087L10.0001 15.4337L5.29265 17.9087C5.13787 17.99 4.96347 18.0264 4.78914 18.0137C4.61479 18.0011 4.44745 17.94 4.306 17.8374C4.16455 17.7346 4.05464 17.5944 3.98866 17.4325C3.92269 17.2706 3.90329 17.0936 3.93265 16.9212L4.83265 11.6787L1.02265 7.9675C0.897103 7.8454 0.808269 7.69059 0.766209 7.52059C0.72415 7.35059 0.730547 7.17221 0.784675 7.00566C0.838804 6.83911 0.938499 6.69105 1.07246 6.57826C1.20643 6.46547 1.36931 6.39246 1.54265 6.3675L6.80515 5.60375L9.1589 0.835C9.23637 0.678065 9.35622 0.54595 9.5049 0.453609C9.65357 0.361268 9.82512 0.312388 10.0001 0.3125Z" fill="#F0B90A"/>
</svg>
